build/img/icon-envelope.svg

<svg width="80" height="80" viewBox="0 0 80 80" fill="none" xmlns="http://www.w3.org/2000/svg">
<path d="M40 0C17.92 0 0 17.92 0 40C0 62.08 17.92 80 40 80C62.08 80 80 62.08 80 40C80 17.92 62.08 0 40 0ZM16.0267 52.3733V29.7333C16.0267 29.4933 16.0533 29.2533 16.08 28.9867L38.6933 43.0933C38.72 43.12 38.7467 43.12 38.7733 43.1467C38.8 43.1733 38.8267 43.1733 38.8533 43.2C39.0133 43.28 39.1733 43.36 39.36 43.3867C39.3867 43.3867 39.3867 43.3867 39.4133 43.3867C39.6 43.44 39.7867 43.4667 39.9733 43.4667C40.16 43.4667 40.3467 43.44 40.5333 43.3867C40.56 43.3867 40.56 43.3867 40.5867 43.3867C40.7467 43.3333 40.9067 43.28 41.0933 43.2C41.12 43.1733 41.1467 43.1733 41.1733 43.1467C41.2 43.12 41.2267 43.12 41.2533 43.0933L63.8667 28.9867C63.92 29.2267 63.92 29.4667 63.92 29.7333V52.3733C63.92 54.7467 62 56.6667 59.6267 56.6667H20.32C17.9467 56.6667 16.0267 54.7467 16.0267 52.3733ZM16.32 28.8L40 14.0533L63.68 28.8H16.32Z" fill="#2581D0"/>
</svg>

<svg width="80" height="80" fill="none" xmlns="http://www.w3.org/2000/svg"><path d="M40 0C17.92 0 0 17.92 0 40s17.92 40 40 40 40-17.92 40-40S62.08 0 40 0zM16.027 52.373v-22.64c0-.24.026-.48.053-.746l22.613 14.106c.027.027.054.027.08.054.027.026.054.026.08.053.16.08.32.16.507.187h.053a2.03 2.03 0 001.12 0h.054c.16-.054.32-.107.506-.187.027-.027.054-.027.08-.053.027-.027.054-.027.08-.054l22.614-14.106c.053.24.053.48.053.746v22.64a4.29 4.29 0 01-4.293 4.294H20.32a4.29 4.29 0 01-4.293-4.294zM16.32 28.8L40 14.053 63.68 28.8H16.32z" fill="#2581D0"/></svg>
